X:1
T:The Green Hills of Tyrol  "CCPB Sep-1995"
M:3/4
L:1/8
Q:50
C:PM J. MacLeod
S:Retreat March
K:HP
|: {g}A3/2B/2{GdG}c2{gcd}c{e}A|
{g}c{Gdc}d{gef}e2{A}ef|
{gcd}cf{gef}e3/2c/2{gBd}B2|  !
{GdG}Bf{gef}e3/2c/2{G}A2|
{g}A3/2B/2{GdG}c2{gcd}c{e}A|
{g}c{Gdc}d{gef}e2{A}ef|  !
{gcd}cf{gef}e3/2c/2{gBd}B2|
{GdG}B{e}A{gcd}c3/2B/2{G}A2:| |:
{gcd}ce{ag}a2{g}a2|  !
{f}gf{gfg}fe{A}e2|
{g}e3/2f/2{gef}ed{gdc}d2|
{g}d3/2e/2{gde}dc{GdG}c2|  !
{gcd}ce{ag}a2{g}a2|
{f}gf{gfg}fe{A}e2|
{g}e3/2f/2{gef}e2{A}e3/2d/2|  !
{g}c{Gdc}d{gef}e2{A}e2:|
|: {g}A3/2B/2{GdG}c2{ag}a2|
{fg}fe{gcd}c2{G}A2|
{g}A3/2B/2{GdG}c2{gef}e3/2c/2|  !
{gBd}B{G}A{GdG}B2-B2|
{g}A3/2B/2{GdG}c2{ag}a2|
{fg}fe{gcd}c2{G}A2|  !
{g}A3/2B/2{GdG}c2{gef}e3/2c/2|
{g}Bc{G}A2-A2:| |:
{gef}e3/2c/2{gBd}B2{G}A2|  !
{ag}a3/2g/2{fg}f2{g}e2|
{g}A3/2B/2{GdG}c2{gef}e3/2c/2|
{gBd}B{G}A{GdG}B2-B2|  !
{gef}e3/2c/2{gBd}B2{G}A2|
{ag}a3/2g/2{fg}f2{g}e2|
{g}A3/2B/2{GdG}c2{gef}e3/2c/2|  !
{g}Bc{G}A2-A2:|
